X: 4221
T: CROSS ROADS
R: Jig
%R: jig
B: James Kerr "Merry Melodies" v.4 p.25 #221
Z: 2016 John Chambers <jc:trillian.mit.edu>
M: 6/8
L: 1/8
K: A
|:\
cEE FEF | cEE Bcd | cEE FEE | ABA AFE |\
cEE BEE | ABc def | efe dcB | ABA GFE :|
|:\
cee Bcd | cee Bcd | cee Bee | ABA AFE |\
cee Bcd | cde efg | agf edc | BcA GFE :|

%%sep 1 1 500
%%sep 1 1 500

